static/img/menus/ico-faceshot-filter.svg

<svg width="20" height="20" viewBox="0 0 20 20" fill="none" xmlns="http://www.w3.org/2000/svg">
<path d="M2.5 4.85294V4.76471C2.5 4.26471 3.00953 3.83824 4.34286 3.48529C5.31847 3.25 6.80001 3.10294 8.28572 3.04412C8.81906 3.01471 9.39048 3 10 3C10.6095 3 11.181 3.01471 11.7143 3.04412C13.2 3.10294 14.5143 3.25 15.6572 3.48529C17.2191 3.83824 17.5 4.26471 17.5 4.76471V4.85294M2.5 4.85294V6.81004C2.5 7.41385 2.77279 7.98535 3.24226 8.36506L7.75775 12.0173C8.22722 12.397 8.50001 12.9685 8.50001 13.5723V15V15.382C8.50001 15.7607 8.71401 16.107 9.05279 16.2764L10.0528 16.7764C10.7177 17.1088 11.5 16.6253 11.5 15.882V15V13.6605C11.5 13.0567 11.7728 12.4852 12.2423 12.1055L16.7577 8.4533C17.2272 8.07358 17.5 7.50209 17.5 6.89828V4.85294M2.5 4.85294C2.51042 5.29665 3.01995 5.679 4.34286 6C5.31847 6.26471 6.80001 6.42647 8.28572 6.48529C8.81906 6.51471 9.39048 6.52941 10 6.52941C10.6095 6.52941 11.181 6.51471 11.7143 6.48529C13.2 6.42647 14.5143 6.26471 15.6572 6C17.2069 5.679 17.4878 5.29665 17.5 4.85294" stroke="#757575" stroke-linecap="round" stroke-linejoin="round"/>
</svg>

<svg xmlns="http://www.w3.org/2000/svg" width="20" height="20" fill="none" viewBox="0 0 20 20"><path stroke="#757575" stroke-linecap="round" stroke-linejoin="round" d="M2.5 4.853v-.088c0-.5.51-.927 1.843-1.28.975-.235 2.457-.382 3.943-.44A31 31 0 0 1 10 3q.915 0 1.714.044 2.229.089 3.943.441c1.562.353 1.843.78 1.843 1.28v.088m-15 0V6.81a2 2 0 0 0 .742 1.555l4.516 3.652a2 2 0 0 1 .742 1.555v1.81a1 1 0 0 0 .553.894l1 .5a1 1 0 0 0 1.447-.894V13.66a2 2 0 0 1 .742-1.555l4.516-3.652a2 2 0 0 0 .742-1.555V4.853m-15 0c.01.444.52.826 1.843 1.147.975.265 2.457.426 3.943.485q.8.045 1.714.044.915 0 1.714-.044 2.229-.088 3.943-.485c1.55-.321 1.83-.703 1.843-1.147"/></svg>
